X: 22807
T: Lansdowne Lass, The
R: reel
M: 4/4
K: Gmajor
A|B2ge dBGA|BdBG AEGE|DG~G2 GABd|egdB ABGA|
B2ge dBGA|BdBG AEGE|DG~G2 GABd|gedB G3:|
|:A|BG~G2 DG~G2|g2eg dB~B2|g2eg d2Bd|eaag a2ga|
bgab agef|gage dBAB|GAGE DGBe|dBAB G3:|

